static/images/icons/web.svg

<svg fill="none" height="42" viewBox="0 0 42 42" width="42" xmlns="http://www.w3.org/2000/svg"><path d="m9 21c0-3.1826 1.2643-6.2348 3.5147-8.4853 2.2505-2.2504 5.3027-3.5147 8.4853-3.5147s6.2348 1.2643 8.4853 3.5147c2.2504 2.2505 3.5147 5.3027 3.5147 8.4853s-1.2643 6.2348-3.5147 8.4853c-2.2505 2.2504-5.3027 3.5147-8.4853 3.5147s-6.2348-1.2643-8.4853-3.5147c-2.2504-2.2505-3.5147-5.3027-3.5147-8.4853zm11.25-10.384c-1.005.306-2.002 1.23-2.83 2.782-.216.403-.413.839-.593 1.308 1.057.236 2.208.386 3.423.43zm-4.877 3.693c.215-.577.455-1.116.722-1.617.261-.49.56-.958.895-1.4-1.2772.5289-2.4374 1.3047-3.414 2.283.544.277 1.143.52 1.797.734zm-1.11 5.941c.055-1.605.283-3.13.655-4.512-.8125-.2584-1.5987-.5933-2.348-1-1.1949 1.6037-1.904 3.5169-2.043 5.512zm2.1-4.112c-.3542 1.3437-.5555 2.7231-.6 4.112h4.487v-3.614c-1.3084-.0401-2.6108-.2069-3.887-.498zm5.387.497v3.615h4.485c-.0442-1.3889-.2451-2.7683-.599-4.112-1.212.281-2.521.45-3.886.497zm-5.985 5.115c.052 1.48.264 2.871.599 4.112 1.2764-.29 2.5777-.4564 3.886-.497v-3.615zm5.985 0v3.614c1.365.045 2.675.217 3.886.498.335-1.241.546-2.631.6-4.112zm-4.923 5.544c.18.469.377.905.592 1.308.828 1.552 1.827 2.475 2.831 2.783v-4.52c-1.1516.0391-2.2973.1827-3.423.429zm.165 3.414c-.336-.442-.636-.91-.897-1.4-.2758-.5229-.517-1.0634-.722-1.618-.617.198-1.217.444-1.797.735.9773.9784 2.1382 1.7542 3.416 2.283zm-2.075-4.446c-.3887-1.4743-.6085-2.988-.655-4.512h-3.735c.1388 1.9954.8479 3.909 2.043 5.513.7493-.4064 1.5351-.7415 2.347-1.001zm10.092 4.446c1.2767-.5284 2.4365-1.3035 3.413-2.281-.5788-.2912-1.1793-.5372-1.796-.736-.2047.5542-.4456 1.0943-.721 1.617-.261.49-.56.958-.896 1.4zm-3.259-3.845v4.521c1.005-.306 2.002-1.23 2.83-2.782.216-.403.414-.839.593-1.308-1.1255-.2474-2.2713-.3923-3.423-.431zm5.332-.601c.855.277 1.643.613 2.348 1 1.1949-1.6037 1.904-3.5169 2.043-5.512h-3.735c-.0469 1.524-.2669 3.0377-.656 4.512zm4.391-6.012c-.1388-1.9954-.8479-3.909-2.043-5.513-.705.387-1.493.723-2.348 1.001.3891 1.4743.6092 2.988.656 4.512zm-5.568-7.559c.266.502.507 1.041.723 1.617.616-.1986 1.2158-.4443 1.794-.735-.9766-.9771-2.1364-1.7519-3.413-2.28.327.425.627.896.896 1.398zm-.732 2.015c-.171-.447-.37-.884-.593-1.308-.828-1.553-1.825-2.475-2.83-2.783v4.52c1.1516-.0391 2.2973-.1827 3.423-.429z" fill="#fff"/></svg>

<svg width="42" height="42" viewBox="0 0 42 42" fill="none" xmlns="http://www.w3.org/2000/svg">
<path d="M9 21C9 17.8174 10.2643 14.7652 12.5147 12.5147C14.7652 10.2643 17.8174 9 21 9C24.1826 9 27.2348 10.2643 29.4853 12.5147C31.7357 14.7652 33 17.8174 33 21C33 24.1826 31.7357 27.2348 29.4853 29.4853C27.2348 31.7357 24.1826 33 21 33C17.8174 33 14.7652 31.7357 12.5147 29.4853C10.2643 27.2348 9 24.1826 9 21ZM20.25 10.616C19.245 10.922 18.248 11.846 17.42 13.398C17.204 13.801 17.007 14.237 16.827 14.706C17.884 14.942 19.035 15.092 20.25 15.136V10.616ZM15.373 14.309C15.588 13.732 15.828 13.193 16.095 12.692C16.356 12.202 16.655 11.734 16.99 11.292C15.7128 11.8209 14.5526 12.5967 13.576 13.575C14.12 13.852 14.719 14.095 15.373 14.309ZM14.263 20.25C14.318 18.645 14.546 17.12 14.918 15.738C14.1055 15.4796 13.3193 15.1447 12.57 14.738C11.3751 16.3417 10.666 18.2549 10.527 20.25H14.263ZM16.363 16.138C16.0088 17.4817 15.8075 18.8611 15.763 20.25H20.25V16.636C18.9416 16.5959 17.6392 16.4291 16.363 16.138ZM21.75 16.635V20.25H26.235C26.1908 18.8611 25.9899 17.4817 25.636 16.138C24.424 16.419 23.115 16.588 21.75 16.635ZM15.765 21.75C15.817 23.23 16.029 24.621 16.364 25.862C17.6404 25.572 18.9417 25.4056 20.25 25.365V21.75H15.765ZM21.75 21.75V25.364C23.115 25.409 24.425 25.581 25.636 25.862C25.971 24.621 26.182 23.231 26.236 21.75H21.75ZM16.827 27.294C17.007 27.763 17.204 28.199 17.419 28.602C18.247 30.154 19.246 31.077 20.25 31.385V26.865C19.0984 26.9041 17.9527 27.0477 16.827 27.294ZM16.992 30.708C16.656 30.266 16.356 29.798 16.095 29.308C15.8192 28.7851 15.578 28.2446 15.373 27.69C14.756 27.888 14.156 28.134 13.576 28.425C14.5533 29.4034 15.7142 30.1792 16.992 30.708ZM14.917 26.262C14.5283 24.7877 14.3085 23.274 14.262 21.75H10.527C10.6658 23.7454 11.3749 25.659 12.57 27.263C13.3193 26.8566 14.1051 26.5215 14.917 26.262ZM25.009 30.708C26.2857 30.1796 27.4455 29.4045 28.422 28.427C27.8432 28.1358 27.2427 27.8898 26.626 27.691C26.4213 28.2452 26.1804 28.7853 25.905 29.308C25.644 29.798 25.345 30.266 25.009 30.708ZM21.75 26.863V31.384C22.755 31.078 23.752 30.154 24.58 28.602C24.796 28.199 24.994 27.763 25.173 27.294C24.0475 27.0466 22.9017 26.9017 21.75 26.863ZM27.082 26.262C27.937 26.539 28.725 26.875 29.43 27.262C30.6249 25.6583 31.334 23.7451 31.473 21.75H27.738C27.6911 23.274 27.4711 24.7877 27.082 26.262ZM31.473 20.25C31.3342 18.2546 30.6251 16.341 29.43 14.737C28.725 15.124 27.937 15.46 27.082 15.738C27.4711 17.2123 27.6912 18.726 27.738 20.25H31.473ZM25.905 12.691C26.171 13.193 26.412 13.732 26.628 14.308C27.244 14.1094 27.8438 13.8637 28.422 13.573C27.4454 12.5959 26.2856 11.8211 25.009 11.293C25.336 11.718 25.636 12.189 25.905 12.691ZM25.173 14.706C25.002 14.259 24.803 13.822 24.58 13.398C23.752 11.845 22.755 10.923 21.75 10.615V15.135C22.9016 15.0959 24.0473 14.9523 25.173 14.706Z" fill="white"/>
</svg>
